X:100
T:Morgan Rattler. JJo.100
S:J.Jones MS,1801,N.Shrops.
N:The tune is set in C in the MS. This is probably an omission of the #
N:as every other version is in G. However it doesnt sound too incorrect in C
N:and a modal version cannot be ruled out.
N:The g lead-in note makes it a little confusing to play.
N:There are no repeat marks at the end of each part,
N:tho’ there are four dots after the double bars (in the spaces between lines).
A:N Shropshire
Z:Neil Brookes
M:6/8
L:1/8
Q:3/8=120
K:G
g|”_key sig C in MS”dcB ABc|BAB G2g|dcB ABc|e2d efg|!
dcB ABc|BAB G2d|gab agf|e2d efg||!
g2a bge|f2g afd|g2a bge|c’2a bc’d’|!
g2a bge|f2g afd|gab afd|e2d efg||!
G2g gfg|A2a aga|G2g gfg|e2d efg|!
G2g gfg|A2aabc’|d’c’b agf|e2d efg|]

